app/themes/uggwc_pro/assets/images/thema/Medienwissenschaften.svg

<svg width="16" height="16" viewBox="0 0 16 16" fill="none" xmlns="http://www.w3.org/2000/svg">
<path d="M15.2 2H4C3.78783 2 3.58434 2.07902 3.43431 2.21967C3.28429 2.36032 3.2 2.55109 3.2 2.75V5H7.2V3.5H12V11H15.2C15.4122 11 15.6157 10.921 15.7657 10.7803C15.9157 10.6397 16 10.4489 16 10.25V2.75C16 2.55109 15.9157 2.36032 15.7657 2.21967C15.6157 2.07902 15.4122 2 15.2 2ZM5.8 4.41406C5.8 4.47001 5.7763 4.52366 5.7341 4.56322C5.6919 4.60278 5.63467 4.625 5.575 4.625H4.825C4.76533 4.625 4.7081 4.60278 4.6659 4.56322C4.62371 4.52366 4.6 4.47001 4.6 4.41406V3.71094C4.6 3.65499 4.62371 3.60134 4.6659 3.56178C4.7081 3.52222 4.76533 3.5 4.825 3.5H5.575C5.63467 3.5 5.6919 3.52222 5.7341 3.56178C5.7763 3.60134 5.8 3.65499 5.8 3.71094V4.41406ZM14.6 9.28906C14.6 9.34501 14.5763 9.39866 14.5341 9.43822C14.4919 9.47778 14.4347 9.5 14.375 9.5H13.625C13.5653 9.5 13.5081 9.47778 13.4659 9.43822C13.4237 9.39866 13.4 9.34501 13.4 9.28906V8.58594C13.4 8.52999 13.4237 8.47634 13.4659 8.43678C13.5081 8.39722 13.5653 8.375 13.625 8.375H14.375C14.4347 8.375 14.4919 8.39722 14.5341 8.43678C14.5763 8.47634 14.6 8.52999 14.6 8.58594V9.28906ZM14.6 6.85156C14.6 6.90751 14.5763 6.96116 14.5341 7.00072C14.4919 7.04028 14.4347 7.0625 14.375 7.0625H13.625C13.5653 7.0625 13.5081 7.04028 13.4659 7.00072C13.4237 6.96116 13.4 6.90751 13.4 6.85156V6.14844C13.4 6.09249 13.4237 6.03884 13.4659 5.99928C13.5081 5.95972 13.5653 5.9375 13.625 5.9375H14.375C14.4347 5.9375 14.4919 5.95972 14.5341 5.99928C14.5763 6.03884 14.6 6.09249 14.6 6.14844V6.85156ZM14.6 4.41406C14.6 4.47001 14.5763 4.52366 14.5341 4.56322C14.4919 4.60278 14.4347 4.625 14.375 4.625H13.625C13.5653 4.625 13.5081 4.60278 13.4659 4.56322C13.4237 4.52366 13.4 4.47001 13.4 4.41406V3.71094C13.4 3.65499 13.4237 3.60134 13.4659 3.56178C13.5081 3.52222 13.5653 3.5 13.625 3.5H14.375C14.4347 3.5 14.4919 3.52222 14.5341 3.56178C14.5763 3.60134 14.6 3.65499 14.6 3.71094V4.41406ZM10.4 5.75H0.8C0.587827 5.75 0.384344 5.82902 0.234315 5.96967C0.0842855 6.11032 0 6.30109 0 6.5L0 13.25C0 13.4489 0.0842855 13.6397 0.234315 13.7803C0.384344 13.921 0.587827 14 0.8 14H10.4C10.6122 14 10.8157 13.921 10.9657 13.7803C11.1157 13.6397 11.2 13.4489 11.2 13.25V6.5C11.2 6.30109 11.1157 6.11032 10.9657 5.96967C10.8157 5.82902 10.6122 5.75 10.4 5.75ZM2.4 7.25C2.55823 7.25 2.7129 7.29399 2.84446 7.3764C2.97602 7.45881 3.07855 7.57594 3.1391 7.71299C3.19965 7.85003 3.2155 8.00083 3.18463 8.14632C3.15376 8.2918 3.07757 8.42544 2.96569 8.53033C2.8538 8.63522 2.71126 8.70665 2.55607 8.73559C2.40089 8.76453 2.24003 8.74968 2.09385 8.69291C1.94767 8.63614 1.82273 8.54001 1.73482 8.41668C1.64692 8.29334 1.6 8.14834 1.6 8C1.6 7.80109 1.68429 7.61032 1.83431 7.46967C1.98434 7.32902 2.18783 7.25 2.4 7.25ZM9.6 12.5H1.6V11.75L3.2 10.25L4 11L7.2 8L9.6 10.25V12.5Z" fill="#6E6CFF"/>
</svg>

<svg width="16" height="16" fill="none" xmlns="http://www.w3.org/2000/svg"><path d="M15.2 2H4a.828.828 0 0 0-.566.22.727.727 0 0 0-.234.53V5h4V3.5H12V11h3.2a.828.828 0 0 0 .566-.22.727.727 0 0 0 .234-.53v-7.5a.727.727 0 0 0-.234-.53A.828.828 0 0 0 15.2 2zM5.8 4.414c0 .056-.024.11-.066.15a.233.233 0 0 1-.159.061h-.75a.233.233 0 0 1-.16-.062.204.204 0 0 1-.065-.149v-.703c0-.056.024-.11.066-.15.042-.039.1-.061.159-.061h.75c.06 0 .117.022.16.062.041.04.065.093.065.149v.703zm8.8 4.875c0 .056-.024.11-.066.15a.233.233 0 0 1-.159.061h-.75a.233.233 0 0 1-.16-.062.204.204 0 0 1-.065-.149v-.703c0-.056.024-.11.066-.15.042-.039.1-.061.159-.061h.75c.06 0 .117.022.16.062.041.04.065.093.065.149v.703zm0-2.437c0 .056-.024.11-.066.149a.233.233 0 0 1-.159.061h-.75a.233.233 0 0 1-.16-.061.204.204 0 0 1-.065-.15v-.703c0-.056.024-.11.066-.149.042-.04.1-.061.159-.061h.75c.06 0 .117.022.16.061.041.04.065.093.065.15v.703zm0-2.438c0 .056-.024.11-.066.15a.233.233 0 0 1-.159.061h-.75a.233.233 0 0 1-.16-.062.204.204 0 0 1-.065-.149v-.703c0-.056.024-.11.066-.15.042-.039.1-.061.159-.061h.75c.06 0 .117.022.16.062.041.04.065.093.065.149v.703zM10.4 5.75H.8a.828.828 0 0 0-.566.22A.727.727 0 0 0 0 6.5v6.75c0 .199.084.39.234.53.15.141.354.22.566.22h9.6a.828.828 0 0 0 .566-.22.727.727 0 0 0 .234-.53V6.5a.727.727 0 0 0-.234-.53.828.828 0 0 0-.566-.22zm-8 1.5c.158 0 .313.044.444.126.132.083.235.2.295.337s.077.288.046.433a.737.737 0 0 1-.22.384.818.818 0 0 1-.409.206.85.85 0 0 1-.462-.043.791.791 0 0 1-.36-.276.717.717 0 0 1 .1-.947c.15-.141.354-.22.566-.22zm7.2 5.25h-8v-.75l1.6-1.5.8.75 3.2-3 2.4 2.25v2.25z" fill="#6E6CFF"/></svg>
